X:1
T:Title
%%score ( 1 2 ) { 3 | 4 }
L:1/8
M:6/8
K:Eb
V:1 treble nm="Bright Piano"
V:2 treble 
V:3 bass nm="Bright Piano"
V:4 bass 
V:1
 z3 z2[Q:1/4=84] [EB] | B=A[EB] [Ec][EB][EG] | [EG]2 [DF] E2 [_DE] | C-[CA][Ec] ed[Ec] | %4
[M:5/8] [EB]-[EB]- [EB]3 |[M:1/8] [EB] |[M:3/4] B=A [EB][Ec] [EB][EG] | [EG]2 [DF] E2 [Ec]/[Ec]/ | %8
 [EB]3 [B,D]3 |[M:5/8] [B,E]-[B,E]- [B,E]3 |[M:1/8] [B,E] |[M:3/4] [CE][EA] [Ac][ce] [Bd][Ac] | %12
 [GB]4- [GB][EG] | FB [Fd] [Fd]2 [Ec] |[M:5/8] B-[FB-][EB-] [DB]2 |[M:1/8] [FB] | %16
[M:3/4] [Ee]2 [EB][EB] [EA][EG] | [Ec]2 [Ec][EB] [Ec][Ee] | [EG]3 [DF]3 |[M:5/8] E-E- E3 |] %20
V:2
 x6 | .E3 z3 | x6 | .E3 .E3 |[M:5/8] x5 |[M:1/8] x |[M:3/4] E2 z2 z2 | x6 | x6 |[M:5/8] x5 | %10
[M:1/8] x |[M:3/4] x6 | x6 | D2 z2 z2 |[M:5/8] D z z z2 |[M:1/8] x |[M:3/4] x6 | x6 | x6 | %19
[M:5/8] x5 |] %20
V:3
 z3 z2 G, | G,_G,=G, A,G,B, | B,2 A, G,2 G, | A,2 A, CB,A, |[M:5/8] G,-G,- G,3 |[M:1/8] G, | %6
[M:3/4] G,_G, =G,A, G,B, | B,2 A, G,2 A,/A,/ | G,3 A,3 |[M:5/8] G,-G,- G,3 |[M:1/8] G, | %11
[M:3/4] A,[K:treble]C EC DE | E4- E[K:bass]B, | B,F, B, B,2 =A, |[M:5/8] B,A,G, F,2 |[M:1/8] A, | %16
[M:3/4] G,2 G,G, CB, | A,2 A,B, G,A, | B,3 A,3 |[M:5/8] G,-G,- G,3 |] %20
V:4
 z3 z2 E, | E,2 E, E,E,E, | B,,2 B,, E,2 E, | A,,2 A,, A,,2 C, |[M:5/8] E,-E,- E,3 |[M:1/8] E, | %6
[M:3/4] E,2 E,E, E,E, | B,,2 B,, C,2 A,,/A,,/ | B,,3 B,,3 |[M:5/8] E,-E,- E,3 |[M:1/8] E, | %11
[M:3/4] A,,A,, A,, A,,2 C, | E,4- E,E, | .F,2 F, F,2 F, |[M:5/8] B,,-B,,- B,,3 |[M:1/8] D, | %16
[M:3/4] E,2 E,E, E,E, | z2 z G, E,C, | B,,3 B,,3 |[M:5/8] E,-E,- E,3 |] %20

